X:42
T:Sean Sa Ceo
R:Reel
S:Kevin Burke, London (fiddle)
D:"The Pure Drop"
M:4/4
Z:Bernie Stocks
K:C
cB | (3AcA Gc ADEG | AcAE Gz{G}ED | EAAG AB{c}BA | Ec{d}cA GECE |
A2Gc AD~D2 | [A3D3]E G2ED | [E2A2] (3.A.A.A ABcA | EGcA GECE ||
FDDC [D3A,3]E | FD~D2 GECE | FDDC DEFG | ABcA GECE |
FDDC [D3A,3]E | FD~D2 GECE | FDDC DEFG | ABcA GABc ||
K:G
d2fd edfd | (3.d.d.dfd A2AB | c2ec dcec | ~c2ec ABcA | 
d2fd edfd | ~d2fd A2AB | cBce dcAB | cdcA Gc{d}cB ||
<end>
<start>
